luts/g_major_4_gradient_map.cube
# VEGAS Pro LUT
TITLE "g major 4 (gradient map)"
LUT_3D_SIZE 5
0.00000000 0.00000000 0.00000000
0.25000000 0.00000000 0.00000000
0.50000000 0.00000000 0.00000000
0.75000000 0.00000000 0.00000000
1.00000000 0.00000000 0.00000000
0.00000000 0.25000000 0.00000000
0.25000000 0.25000000 0.00000000
0.50000000 0.25000000 0.00000000
0.75000000 0.25000000 0.00000000
1.00000000 0.25000000 0.00000000
0.00000000 0.50000000 0.00000000
0.25000000 0.50000000 0.00000000
0.50000000 0.50000000 0.00000000
0.74246025 0.49497348 0.00000000
0.89099061 0.44549531 0.00000000
0.00000000 0.75000000 0.00000000
0.24797080 0.74391240 0.00000000
0.44801253 0.67201877 0.00000000
0.54854977 0.54854977 0.00000000
0.53008413 0.39756310 0.00000000
0.00000000 0.90096641 0.00000000
0.18457565 0.73830259 0.00000000
0.26888424 0.53776848 0.00000000
0.24858092 0.33144122 0.00000000
0.15139782 0.15139782 0.00000000
0.00000000 0.00000000 0.25000000
0.25000000 0.00000000 0.25000000
0.50000000 0.00000000 0.25000000
0.75000000 0.00000000 0.25000000
1.00000000 0.00000000 0.25000000
0.00000000 0.25000000 0.25000000
0.25000000 0.25000000 0.25000000
0.50000000 0.25000000 0.25000000
0.75000000 0.25000000 0.25000000
1.00000000 0.25000000 0.25000000
0.00000000 0.50000000 0.25000000
0.25000000 0.50000000 0.25000000
0.50000000 0.50000000 0.25000000
0.72167349 0.48111567 0.24055783
0.83372235 0.41686118 0.20843059
0.00000000 0.75000000 0.25000000
0.24137200 0.72411603 0.24137200
0.41981369 0.62972057 0.20990685
0.49292216 0.49292216 0.16430739
0.45037156 0.33777869 0.11259289
0.00000000 0.84545583 0.21136396
0.16614240 0.66456962 0.16614240
0.22902161 0.45804322 0.11451080
0.19346523 0.25795364 0.06448841
0.09637809 0.09637809 0.02409452
0.00000000 0.00000000 0.50000000
0.25000000 0.00000000 0.50000000
0.50000000 0.00000000 0.50000000
0.75000000 0.00000000 0.50000000
1.00000000 0.00000000 0.50000000
0.00000000 0.25000000 0.50000000
0.25000000 0.25000000 0.50000000
0.50000000 0.25000000 0.50000000
0.75000000 0.25000000 0.50000000
0.99882770 0.24970692 0.49941385
0.00000000 0.50000000 0.50000000
0.25000000 0.50000000 0.50000000
0.50000000 0.50000000 0.50000000
0.69135416 0.46090278 0.46090278
0.76840705 0.38420352 0.38420352
0.00000000 0.75000000 0.50000000
0.23155279 0.69465840 0.46310559
0.38750550 0.58125824 0.38750550
0.43462774 0.43462774 0.28975183
0.37176633 0.27882475 0.18588316
0.00000000 0.78155500 0.39077750
0.14677735 0.58710939 0.29355469
0.18962681 0.37925363 0.18962681
0.14254859 0.19006479 0.09503239
0.05161995 0.05161995 0.02580997
0.00000000 0.00000000 0.75000000
0.25000000 0.00000000 0.75000000
0.50000000 0.00000000 0.75000000
0.75000000 0.00000000 0.75000000
1.00000000 0.00000000 0.75000000
0.00000000 0.25000000 0.75000000
0.25000000 0.25000000 0.75000000
0.50000000 0.25000000 0.75000000
0.75000000 0.25000000 0.75000000
0.97851562 0.24462891 0.73388672
0.00000000 0.50000000 0.75000000
0.25000000 0.50000000 0.75000000
0.49054936 0.49054936 0.73582405
0.65283573 0.43522382 0.65283573
0.69682240 0.34841120 0.52261680
0.00000000 0.73766488 0.73766488
0.21895763 0.65687287 0.65687287
0.35197693 0.52796543 0.52796543
0.37500000 0.37500000 0.37500000
0.29604620 0.22203465 0.22203465
0.00000000 0.71104181 0.53328133
0.12692493 0.50769973 0.38077480
0.15158880 0.30317760 0.22738320
0.09716432 0.12955242 0.09716432
0.01890129 0.01890129 0.01417597
0.00000000 0.00000000 1.00000000
0.25000000 0.00000000 1.00000000
0.50000000 0.00000000 1.00000000
0.75000000 0.00000000 1.00000000
1.00000000 0.00000000 1.00000000
0.00000000 0.25000000 1.00000000
0.25000000 0.25000000 1.00000000
0.50000000 0.25000000 1.00000000
0.75000000 0.25000000 1.00000000
0.94455779 0.23613945 0.94455779
0.00000000 0.50000000 1.00000000
0.25000000 0.50000000 1.00000000
0.47419003 0.47419003 0.94838005
0.60745144 0.40496761 0.80993521
0.62074637 0.31037319 0.62074637
0.00000000 0.71406770 0.95209026
0.20403101 0.61209303 0.81612402
0.31411684 0.47117525 0.62823367
0.31537223 0.31537223 0.42049628
0.22498900 0.16874175 0.22498900
0.00000000 0.63569409 0.63569409
0.10702963 0.42811853 0.42811853
0.11579648 0.23159295 0.23159295
0.05864583 0.07819444 0.07819444
0.00000000 0.00000000 0.00000000
