luts/g_major_4_gradient_map.cube
# VEGAS Pro LUT
TITLE "g major 4 (gradient map)"
LUT_3D_SIZE 33
0.00000000 0.00000000 0.00000000
0.03125000 0.00000000 0.00000000
0.06250000 0.00000000 0.00000000
0.09375000 0.00000000 0.00000000
0.12500000 0.00000000 0.00000000
0.15625000 0.00000000 0.00000000
0.18750000 0.00000000 0.00000000
0.21875000 0.00000000 0.00000000
0.25000000 0.00000000 0.00000000
0.28125000 0.00000000 0.00000000
0.31250000 0.00000000 0.00000000
0.34375000 0.00000000 0.00000000
0.37500000 0.00000000 0.00000000
0.40625000 0.00000000 0.00000000
0.43750000 0.00000000 0.00000000
0.46875000 0.00000000 0.00000000
0.50000000 0.00000000 0.00000000
0.53125000 0.00000000 0.00000000
0.56250000 0.00000000 0.00000000
0.59375000 0.00000000 0.00000000
0.62500000 0.00000000 0.00000000
0.65625000 0.00000000 0.00000000
0.68750000 0.00000000 0.00000000
0.71875000 0.00000000 0.00000000
0.75000000 0.00000000 0.00000000
0.78125000 0.00000000 0.00000000
0.81250000 0.00000000 0.00000000
0.84375000 0.00000000 0.00000000
0.87500000 0.00000000 0.00000000
0.90625000 0.00000000 0.00000000
0.93750000 0.00000000 0.00000000
0.96875000 0.00000000 0.00000000
1.00000000 0.00000000 0.00000000
0.00000000 0.03125000 0.00000000
0.03125000 0.03125000 0.00000000
0.06250000 0.03125000 0.00000000
0.09375000 0.03125000 0.00000000
0.12500000 0.03125000 0.00000000
0.15625000 0.03125000 0.00000000
0.18750000 0.03125000 0.00000000
0.21875000 0.03125000 0.00000000
0.25000000 0.03125000 0.00000000
0.28125000 0.03125000 0.00000000
0.31250000 0.03125000 0.00000000
0.34375000 0.03125000 0.00000000
0.37500000 0.03125000 0.00000000
0.40625000 0.03125000 0.00000000
0.43750000 0.03125000 0.00000000
0.46875000 0.03125000 0.00000000
0.50000000 0.03125000 0.00000000
0.53125000 0.03125000 0.00000000
0.56250000 0.03125000 0.00000000
0.59375000 0.03125000 0.00000000
0.62500000 0.03125000 0.00000000
0.65625000 0.03125000 0.00000000
0.68750000 0.03125000 0.00000000
0.71875000 0.03125000 0.00000000
0.75000000 0.03125000 0.00000000
0.78125000 0.03125000 0.00000000
0.81250000 0.03125000 0.00000000
0.84375000 0.03125000 0.00000000
0.87500000 0.03125000 0.00000000
0.90625000 0.03125000 0.00000000
0.93750000 0.03125000 0.00000000
0.96875000 0.03125000 0.00000000
1.00000000 0.03125000 0.00000000
0.00000000 0.06250000 0.00000000
0.03125000 0.06250000 0.00000000
0.06250000 0.06250000 0.00000000
0.09375000 0.06250000 0.00000000
0.12500000 0.06250000 0.00000000
0.15625000 0.06250000 0.00000000
0.18750000 0.06250000 0.00000000
0.21875000 0.06250000 0.00000000
0.25000000 0.06250000 0.00000000
0.28125000 0.06250000 0.00000000
0.31250000 0.06250000 0.00000000
0.34375000 0.06250000 0.00000000
0.37500000 0.06250000 0.00000000
0.40625000 0.06250000 0.00000000
0.43750000 0.06250000 0.00000000
0.46875000 0.06250000 0.00000000
0.50000000 0.06250000 0.00000000
0.53125000 0.06250000 0.00000000
0.56250000 0.06250000 0.00000000
0.59375000 0.06250000 0.00000000
0.62500000 0.06250000 0.00000000
0.65625000 0.06250000 0.00000000
0.68750000 0.06250000 0.00000000
0.71875000 0.06250000 0.00000000
0.75000000 0.06250000 0.00000000
0.78125000 0.06250000 0.00000000
0.81250000 0.06250000 0.00000000
0.84375000 0.06250000 0.00000000
0.87500000 0.06250000 0.00000000
0.90625000 0.06250000 0.00000000
0.93750000 0.06250000 0.00000000
0.96875000 0.06250000 0.00000000
1.00000000 0.06250000 0.00000000
0.00000000 0.09375000 0.00000000
0.03125000 0.09375000 0.00000000
0.06250000 0.09375000 0.00000000
0.09375000 0.09375000 0.00000000
0.12500000 0.09375000 0.00000000
0.15625000 0.09375000 0.00000000
0.18750000 0.09375000 0.00000000
0.21875000 0.09375000 0.00000000
0.25000000 0.09375000 0.00000000
0.28125000 0.09375000 0.00000000
0.31250000 0.09375000 0.00000000
0.34375000 0.09375000 0.00000000
0.37500000 0.09375000 0.00000000
0.40625000 0.09375000 0.00000000
0.43750000 0.09375000 0.00000000
0.46875000 0.09375000 0.00000000
0.50000000 0.09375000 0.00000000
0.53125000 0.09375000 0.00000000
0.56250000 0.09375000 0.00000000
0.59375000 0.09375000 0.00000000
0.62500000 0.09375000 0.00000000
0.65625000 0.09375000 0.00000000
0.68750000 0.09375000 0.00000000
0.71875000 0.09375000 0.00000000
0.75000000 0.09375000 0.00000000
0.78125000 0.09375000 0.00000000
0.81250000 0.09375000 0.00000000
0.84375000 0.09375000 0.00000000
0.87500000 0.09375000 0.00000000
0.90625000 0.09375000 0.00000000
0.93750000 0.09375000 0.00000000
0.96875000 0.09375000 0.00000000
1.00000000 0.09375000 0.00000000
0.00000000 0.12500000 0.00000000
0.03125000 0.12500000 0.00000000
0.06250000 0.12500000 0.00000000
0.09375000 0.12500000 0.00000000
0.12500000 0.12500000 0.00000000
0.15625000 0.12500000 0.00000000
0.18750000 0.12500000 0.00000000
0.21875000 0.12500000 0.00000000
0.25000000 0.12500000 0.00000000
0.28125000 0.12500000 0.00000000
0.31250000 0.12500000 0.00000000
0.34375000 0.12500000 0.00000000
0.37500000 0.12500000 0.00000000
0.40625000 0.12500000 0.00000000
0.43750000 0.12500000 0.00000000
0.46875000 0.12500000 0.00000000
0.50000000 0.12500000 0.00000000
0.53125000 0.12500000 0.00000000
0.56250000 0.12500000 0.00000000
0.59375000 0.12500000 0.00000000
0.62500000 0.12500000 0.00000000
0.65625000 0.12500000 0.00000000
0.68750000 0.12500000 0.00000000
0.71875000 0.12500000 0.00000000
0.75000000 0.12500000 0.00000000
0.78125000 0.12500000 0.00000000
0.81250000 0.12500000 0.00000000
0.84375000 0.12500000 0.00000000
0.87500000 0.12500000 0.00000000
0.90625000 0.12500000 0.00000000
0.93750000 0.12500000 0.00000000
0.96875000 0.12500000 0.00000000
1.00000000 0.12500000 0.00000000
0.00000000 0.15625000 0.00000000
0.03125000 0.15625000 0.00000000
0.06250000 0.15625000 0.00000000
0.09375000 0.15625000 0.00000000
0.12500000 0.15625000 0.00000000
0.15625000 0.15625000 0.00000000
0.18750000 0.15625000 0.00000000
0.21875000 0.15625000 0.00000000
0.25000000 0.15625000 0.00000000
0.28125000 0.15625000 0.00000000
0.31250000 0.15625000 0.00000000
0.34375000 0.15625000 0.00000000
0.37500000 0.15625000 0.00000000
0.40625000 0.15625000 0.00000000
0.43750000 0.15625000 0.00000000
0.46875000 0.15625000 0.00000000
0.50000000 0.15625000 0.00000000
0.53125000 0.15625000 0.00000000
0.56250000 0.15625000 0.00000000
0.59375000 0.15625000 0.00000000
0.62500000 0.15625000 0.00000000
0.65625000 0.15625000 0.00000000
0.68750000 0.15625000 0.00000000
0.71875000 0.15625000 0.00000000
0.75000000 0.15625000 0.00000000
0.78125000 0.15625000 0.00000000
0.81250000 0.15625000 0.00000000
0.84375000 0.15625000 0.00000000
0.87500000 0.15625000 0.00000000
0.90625000 0.15625000 0.00000000
0.93750000 0.15625000 0.00000000
0.96875000 0.15625000 0.00000000
1.00000000 0.15625000 0.00000000
0.00000000 0.18750000 0.00000000
0.03125000 0.18750000 0.00000000
0.06250000 0.18750000 0.00000000
0.09375000 0.18750000 0.00000000
0.12500000 0.18750000 0.00000000
0.15625000 0.18750000 0.00000000
0.18750000 0.18750000 0.00000000
0.21875000 0.18750000 0.00000000
0.25000000 0.18750000 0.00000000
0.28125000 0.18750000 0.00000000
0.31250000 0.18750000 0.00000000
0.34375000 0.18750000 0.00000000
0.37500000 0.18750000 0.00000000
0.40625000 0.18750000 0.00000000
0.43750000 0.18750000 0.00000000
0.46875000 0.18750000 0.00000000
0.50000000 0.18750000 0.00000000
0.53125000 0.18750000 0.00000000
0.56250000 0.18750000 0.00000000
0.59375000 0.18750000 0.00000000
0.62500000 0.18750000 0.00000000
0.65625000 0.18750000 0.00000000
0.68750000 0.18750000 0.00000000
0.71875000 0.18750000 0.00000000
0.75000000 0.18750000 0.00000000
0.78125000 0.18750000 0.00000000
0.81250000 0.18750000 0.00000000
0.84375000 0.18750000 0.00000000
0.87500000 0.18750000 0.00000000
0.90625000 0.18750000 0.00000000
0.93750000 0.18750000 0.00000000
0.96875000 0.18750000 0.00000000
1.00000000 0.18750000 0.00000000
0.00000000 0.21875000 0.00000000
0.03125000 0.21875000 0.00000000
0.06250000 0.21875000 0.00000000
0.09375000 0.21875000 0.00000000
0.12500000 0.21875000 0.00000000
0.15625000 0.21875000 0.00000000
0.18750000 0.21875000 0.00000000
0.21875000 0.21875000 0.00000000
0.25000000 0.21875000 0.00000000
0.28125000 0.21875000 0.00000000
0.31250000 0.21875000 0.00000000
0.34375000 0.21875000 0.00000000
0.37500000 0.21875000 0.00000000
0.40625000 0.21875000 0.00000000
0.43750000 0.21875000 0.00000000
0.46875000 0.21875000 0.00000000
0.50000000 0.21875000 0.00000000
0.53125000 0.21875000 0.00000000
0.56250000 0.21875000 0.00000000
0.59375000 0.21875000 0.00000000
0.62500000 0.21875000 0.00000000
0.65625000 0.21875000 0.00000000
0.68750000 0.21875000 0.00000000
0.71875000 0.21875000 0.00000000
0.75000000 0.21875000 0.00000000
0.78125000 0.21875000 0.00000000
0.81250000 0.21875000 0.00000000
0.84375000 0.21875000 0.00000000
0.87500000 0.21875000 0.00000000
0.90625000 0.21875000 0.00000000
0.93750000 0.21875000 0.00000000
0.96875000 0.21875000 0.00000000
1.00000000 0.21875000 0.00000000
0.00000000 0.25000000 0.00000000
0.03125000 0.25000000 0.00000000
0.06250000 0.25000000 0.00000000
0.09375000 0.25000000 0.00000000
0.12500000 0.25000000 0.00000000
0.15625000 0.25000000 0.00000000
0.18750000 0.25000000 0.00000000
0.21875000 0.25000000 0.00000000
0.25000000 0.25000000 0.00000000
0.28125000 0.25000000 0.00000000
0.31250000 0.25000000 0.00000000
0.34375000 0.25000000 0.00000000
0.37500000 0.25000000 0.00000000
0.40625000 0.25000000 0.00000000
0.43750000 0.25000000 0.00000000
0.46875000 0.25000000 0.00000000
0.50000000 0.25000000 0.00000000
0.53125000 0.25000000 0.00000000
0.56250000 0.25000000 0.00000000
0.59375000 0.25000000 0.00000000
0.62500000 0.25000000 0.00000000
0.65625000 0.25000000 0.00000000
0.68750000 0.25000000 0.00000000
0.71875000 0.25000000 0.00000000
0.75000000 0.25000000 0.00000000
0.78125000 0.25000000 0.00000000
0.81250000 0.25000000 0.00000000
0.84375000 0.25000000 0.00000000
0.87500000 0.25000000 0.00000000
0.90625000 0.25000000 0.00000000
0.93750000 0.25000000 0.00000000
0.96875000 0.25000000 0.00000000
1.00000000 0.25000000 0.00000000
0.00000000 0.28125000 0.00000000
0.03125000 0.28125000 0.00000000
0.06250000 0.28125000 0.00000000
0.09375000 0.28125000 0.00000000
0.12500000 0.28125000 0.00000000
0.15625000 0.28125000 0.00000000
0.18750000 0.28125000 0.00000000
0.21875000 0.28125000 0.00000000
0.25000000 0.28125000 0.00000000
0.28125000 0.28125000 0.00000000
0.31250000 0.28125000 0.00000000
0.34375000 0.28125000 0.00000000
0.37500000 0.28125000 0.00000000
0.40625000 0.28125000 0.00000000
0.43750000 0.28125000 0.00000000
0.46875000 0.28125000 0.00000000
0.50000000 0.28125000 0.00000000
0.53125000 0.28125000 0.00000000
0.56250000 0.28125000 0.00000000
0.59375000 0.28125000 0.00000000
0.62500000 0.28125000 0.00000000
0.65625000 0.28125000 0.00000000
0.68750000 0.28125000 0.00000000
0.71875000 0.28125000 0.00000000
0.75000000 0.28125000 0.00000000
0.78125000 0.28125000 0.00000000
0.81250000 0.28125000 0.00000000
0.84375000 0.28125000 0.00000000
0.87500000 0.28125000 0.00000000
0.90625000 0.28125000 0.00000000
0.93750000 0.28125000 0.00000000
0.96875000 0.28125000 0.00000000
1.00000000 0.28125000 0.00000000
0.00000000 0.31250000 0.00000000
0.03125000 0.31250000 0.00000000
0.06250000 0.31250000 0.00000000
0.09375000 0.31250000 0.00000000
0.12500000 0.31250000 0.00000000
0.15625000 0.31250000 0.00000000
0.18750000 0.31250000 0.00000000
0.21875000 0.31250000 0.00000000
0.25000000 0.31250000 0.00000000
0.28125000 0.31250000 0.00000000
0.31250000 0.31250000 0.00000000
0.34375000 0.31250000 0.00000000
0.37500000 0.31250000 0.00000000
0.40625000 0.31250000 0.00000000
0.43750000 0.31250000 0.00000000
0.46875000 0.31250000 0.00000000
0.50000000 0.31250000 0.00000000
0.53125000 0.31250000 0.00000000
0.56250000 0.31250000 0.00000000
0.59375000 0.31250000 0.00000000
0.62500000 0.31250000 0.00000000
0.65625000 0.31250000 0.00000000
0.68750000 0.31250000 0.00000000
0.71875000 0.31250000 0.00000000
0.75000000 0.31250000 0.00000000
0.78125000 0.31250000 0.00000000
0.81250000 0.31250000 0.00000000
0.84375000 0.31250000 0.00000000
0.87500000 0.31250000 0.00000000
0.90625000 0.31250000 0.00000000
0.93750000 0.31250000 0.00000000
0.96875000 0.31250000 0.00000000
1.00000000 0.31250000 0.00000000
0.00000000 0.34375000 0.00000000
0.03125000 0.34375000 0.00000000
0.06250000 0.34375000 0.00000000
0.09375000 0.34375000 0.00000000
0.12500000 0.34375000 0.00000000
0.15625000 0.34375000 0.00000000
0.18750000 0.34375000 0.00000000
0.21875000 0.34375000 0.00000000
0.25000000 0.34375000 0.00000000
0.28125000 0.34375000 0.00000000
0.31250000 0.34375000 0.00000000
0.34375000 0.34375000 0.00000000
0.37500000 0.34375000 0.00000000
0.40625000 0.34375000 0.00000000
0.43750000 0.34375000 0.00000000
0.46875000 0.34375000 0.00000000
0.50000000 0.34375000 0.00000000
0.53125000 0.34375000 0.00000000
0.56250000 0.34375000 0.00000000
0.59375000 0.34375000 0.00000000
0.62500000 0.34375000 0.00000000
0.65625000 0.34375000 0.00000000
0.68750000 0.34375000 0.00000000
0.71875000 0.34375000 0.00000000
0.75000000 0.34375000 0.00000000
0.78125000 0.34375000 0.00000000
0.81250000 0.34375000 0.00000000
0.84375000 0.34375000 0.00000000
0.87500000 0.34375000 0.00000000
0.90625000 0.34375000 0.00000000
0.93750000 0.34375000 0.00000000
0.96875000 0.34375000 0.00000000
0.99968165 0.34364057 0.00000000
0.00000000 0.37500000 0.00000000
0.03125000 0.37500000 0.00000000
0.06250000 0.37500000 0.00000000
0.09375000 0.37500000 0.00000000
0.12500000 0.37500000 0.00000000
0.15625000 0.37500000 0.00000000
0.18750000 0.37500000 0.00000000
0.21875000 0.37500000 0.00000000
0.25000000 0.37500000 0.00000000
0.28125000 0.37500000 0.00000000
0.31250000 0.37500000 0.00000000
0.34375000 0.37500000 0.00000000
0.37500000 0.37500000 0.00000000
0.40625000 0.37500000 0.00000000
0.43750000 0.37500000 0.00000000
0.46875000 0.37500000 0.00000000
0.50000000 0.37500000 0.00000000
0.53125000 0.37500000 0.00000000
0.56250000 0.37500000 0.00000000
0.59375000 0.37500000 0.00000000
0.62500000 0.37500000 0.00000000
0.65625000 0.37500000 0.00000000
0.68750000 0.37500000 0.00000000
0.71875000 0.37500000 0.00000000
0.75000000 0.37500000 0.00000000
0.78125000 0.37500000 0.00000000
0.81250000 0.37500000 0.00000000
0.84375000 0.37500000 0.00000000
0.87500000 0.37500000 0.00000000
0.90625000 0.37500000 0.00000000
0.93733418 0.37493369 0.00000000
0.96408165 0.37319288 0.00000000
0.98892820 0.37084806 0.00000000
0.00000000 0.40625000 0.00000000
0.03125000 0.40625000 0.00000000
0.06250000 0.40625000 0.00000000
0.09375000 0.40625000 0.00000000
0.12500000 0.40625000 0.00000000
0.15625000 0.40625000 0.00000000
0.18750000 0.40625000 0.00000000
0.21875000 0.40625000 0.00000000
0.25000000 0.40625000 0.00000000
0.28125000 0.40625000 0.00000000
0.31250000 0.40625000 0.00000000
0.34375000 0.40625000 0.00000000
0.37500000 0.40625000 0.00000000
0.40625000 0.40625000 0.00000000
0.43750000 0.40625000 0.00000000
0.46875000 0.40625000 0.00000000
0.50000000 0.40625000 0.00000000
0.53125000 0.40625000 0.00000000
0.56250000 0.40625000 0.00000000
0.59375000 0.40625000 0.00000000
0.62500000 0.40625000 0.00000000
0.65625000 0.40625000 0.00000000
0.68750000 0.40625000 0.00000000
0.71875000 0.40625000 0.00000000
0.75000000 0.40625000 0.00000000
0.78125000 0.40625000 0.00000000
0.81250000 0.40625000 0.00000000
0.84375000 0.40625000 0.00000000
0.87496710 0.40623471 0.00000000
0.90206379 0.40437341 0.00000000
0.92736191 0.40185684 0.00000000
0.95077097 0.39871043 0.00000000
0.97220832 0.39495963 0.00000000
0.00000000 0.43750000 0.00000000
0.03125000 0.43750000 0.00000000
0.06250000 0.43750000 0.00000000
0.09375000 0.43750000 0.00000000
0.12500000 0.43750000 0.00000000
0.15625000 0.43750000 0.00000000
0.18750000 0.43750000 0.00000000
0.21875000 0.43750000 0.00000000
0.25000000 0.43750000 0.00000000
0.28125000 0.43750000 0.00000000
0.31250000 0.43750000 0.00000000
0.34375000 0.43750000 0.00000000
0.37500000 0.43750000 0.00000000
0.40625000 0.43750000 0.00000000
0.43750000 0.43750000 0.00000000
0.46875000 0.43750000 0.00000000
0.50000000 0.43750000 0.00000000
0.53125000 0.43750000 0.00000000
0.56250000 0.43750000 0.00000000
0.59375000 0.43750000 0.00000000
0.62500000 0.43750000 0.00000000
0.65625000 0.43750000 0.00000000
0.68750000 0.43750000 0.00000000
0.71875000 0.43750000 0.00000000
0.75000000 0.43750000 0.00000000
0.78125000 0.43750000 0.00000000
0.81250000 0.43750000 0.00000000
0.84001911 0.43556547 0.00000000
0.86576158 0.43288079 0.00000000
0.88971341 0.42951679 0.00000000
0.91178775 0.42550093 0.00000000
0.93190569 0.42086065 0.00000000
0.94999605 0.41562328 0.00000000
0.00000000 0.46875000 0.00000000
0.03125000 0.46875000 0.00000000
0.06250000 0.46875000 0.00000000
0.09375000 0.46875000 0.00000000
0.12500000 0.46875000 0.00000000
0.15625000 0.46875000 0.00000000
0.18750000 0.46875000 0.00000000
0.21875000 0.46875000 0.00000000
0.25000000 0.46875000 0.00000000
0.28125000 0.46875000 0.00000000
0.31250000 0.46875000 0.00000000
0.34375000 0.46875000 0.00000000
0.37500000 0.46875000 0.00000000
0.40625000 0.46875000 0.00000000
0.43750000 0.46875000 0.00000000
0.46875000 0.46875000 0.00000000
0.50000000 0.46875000 0.00000000
0.53125000 0.46875000 0.00000000
0.56250000 0.46875000 0.00000000
0.59375000 0.46875000 0.00000000
0.62500000 0.46875000 0.00000000
0.65625000 0.46875000 0.00000000
0.68750000 0.46875000 0.00000000
0.71875000 0.46875000 0.00000000
0.75000000 0.46875000 0.00000000
0.77794808 0.46676886 0.00000000
0.80412751 0.46391973 0.00000000
0.82861507 0.46034172 0.00000000
0.85131985 0.45606422 0.00000000
0.87215865 0.45111653 0.00000000
0.89105618 0.44552809 0.00000000
0.90794498 0.43932819 0.00000000
0.92276543 0.43254629 0.00000000
0.00000000 0.50000000 0.00000000
0.03125000 0.50000000 0.00000000
0.06250000 0.50000000 0.00000000
0.09375000 0.50000000 0.00000000
0.12500000 0.50000000 0.00000000
0.15625000 0.50000000 0.00000000
0.18750000 0.50000000 0.00000000
0.21875000 0.50000000 0.00000000
0.25000000 0.50000000 0.00000000
0.28125000 0.50000000 0.00000000
0.31250000 0.50000000 0.00000000
0.34375000 0.50000000 0.00000000
0.37500000 0.50000000 0.00000000
0.40625000 0.50000000 0.00000000
0.43750000 0.50000000 0.00000000
0.46875000 0.50000000 0.00000000
0.50000000 0.50000000 0.00000000
0.53125000 0.50000000 0.00000000
0.56250000 0.50000000 0.00000000
0.59375000 0.50000000 0.00000000
0.62500000 0.50000000 0.00000000
0.65625000 0.50000000 0.00000000
0.68750000 0.50000000 0.00000000
0.71585107 0.49798337 0.00000000
0.74246025 0.49497348 0.00000000
0.76747656 0.49118501 0.00000000
0.79080492 0.48664919 0.00000000
0.81235814 0.48139742 0.00000000
0.83205676 0.47546101 0.00000000
0.84982914 0.46887124 0.00000000
0.86561155 0.46165949 0.00000000
0.87934804 0.45385706 0.00000000
0.89099061 0.44549531 0.00000000
0.00000000 0.53125000 0.00000000
0.03125000 0.53125000 0.00000000
0.06250000 0.53125000 0.00000000
0.09375000 0.53125000 0.00000000
0.12500000 0.53125000 0.00000000
0.15625000 0.53125000 0.00000000
0.18750000 0.53125000 0.00000000
0.21875000 0.53125000 0.00000000
0.25000000 0.53125000 0.00000000
0.28125000 0.53125000 0.00000000
0.31250000 0.53125000 0.00000000
0.34375000 0.53125000 0.00000000
0.37500000 0.53125000 0.00000000
0.40625000 0.53125000 0.00000000
0.43750000 0.53125000 0.00000000
0.46875000 0.53125000 0.00000000
0.50000000 0.53125000 0.00000000
0.53125000 0.53125000 0.00000000
0.56250000 0.53125000 0.00000000
0.59375000 0.53125000 0.00000000
0.62500000 0.53125000 0.00000000
0.65372849 0.52920878 0.00000000
0.68076003 0.52604187 0.00000000
0.70629811 0.52204645 0.00000000
0.73024344 0.51725578 0.00000000
0.75250465 0.51170313 0.00000000
0.77299815 0.50542188 0.00000000
0.79164827 0.49844518 0.00000000
0.80838704 0.49080643 0.00000000
0.82315451 0.48253885 0.00000000
0.83589840 0.47367573 0.00000000
0.84657425 0.46425039 0.00000000
0.85514551 0.45429605 0.00000000
0.00000000 0.56250000 0.00000000
0.03125000 0.56250000 0.00000000
0.06250000 0.56250000 0.00000000
0.09375000 0.56250000 0.00000000
0.12500000 0.56250000 0.00000000
0.15625000 0.56250000 0.00000000
0.18750000 0.56250000 0.00000000
0.21875000 0.56250000 0.00000000
0.25000000 0.56250000 0.00000000
0.28125000 0.56250000 0.00000000
0.31250000 0.56250000 0.00000000
0.34375000 0.56250000 0.00000000
0.37500000 0.56250000 0.00000000
0.40625000 0.56250000 0.00000000
0.43750000 0.56250000 0.00000000
0.46875000 0.56250000 0.00000000
0.50000000 0.56250000 0.00000000
0.53125000 0.56250000 0.00000000
0.56250000 0.56250000 0.00000000
0.59158069 0.56044483 0.00000000
0.61902738 0.55712461 0.00000000
0.64508009 0.55292577 0.00000000
0.66963559 0.54788369 0.00000000
0.69259834 0.54203349 0.00000000
0.71388066 0.53541052 0.00000000
0.73340267 0.52804989 0.00000000
0.75109231 0.51998699 0.00000000
0.76688540 0.51125693 0.00000000
0.78072566 0.50189507 0.00000000
0.79256439 0.49193650 0.00000000
0.80236101 0.48141661 0.00000000
0.81008267 0.47037059 0.00000000
0.81570429 0.45883366 0.00000000
0.00000000 0.59375000 0.00000000
0.03125000 0.59375000 0.00000000
0.06250000 0.59375000 0.00000000
0.09375000 0.59375000 0.00000000
0.12500000 0.59375000 0.00000000
0.15625000 0.59375000 0.00000000
0.18750000 0.59375000 0.00000000
0.21875000 0.59375000 0.00000000
0.25000000 0.59375000 0.00000000
0.28125000 0.59375000 0.00000000
0.31250000 0.59375000 0.00000000
0.34375000 0.59375000 0.00000000
0.37500000 0.59375000 0.00000000
0.40625000 0.59375000 0.00000000
0.43750000 0.59375000 0.00000000
0.46875000 0.59375000 0.00000000
0.50000000 0.59375000 0.00000000
0.52940816 0.59169143 0.00000000
0.55726254 0.58822161 0.00000000
0.58382297 0.58382297 0.00000000
0.60898191 0.57853281 0.00000000
0.63263977 0.57238835 0.00000000
0.65470469 0.56542677 0.00000000
0.67509264 0.55768520 0.00000000
0.69372749 0.54920095 0.00000000
0.71054101 0.54001117 0.00000000
0.72547257 0.53015304 0.00000000
0.73846960 0.51966381 0.00000000
0.74948716 0.50858057 0.00000000
0.75848836 0.49694067 0.00000000
0.76544392 0.48478118 0.00000000
0.77033269 0.47213939 0.00000000
0.77314091 0.45905241 0.00000000
0.00000000 0.62500000 0.00000000
0.03125000 0.62500000 0.00000000
0.06250000 0.62500000 0.00000000
0.09375000 0.62500000 0.00000000
0.12500000 0.62500000 0.00000000
0.15625000 0.62500000 0.00000000
0.18750000 0.62500000 0.00000000
0.21875000 0.62500000 0.00000000
0.25000000 0.62500000 0.00000000
0.28125000 0.62500000 0.00000000
0.31250000 0.62500000 0.00000000
0.34375000 0.62500000 0.00000000
0.37500000 0.62500000 0.00000000
0.40625000 0.62500000 0.00000000
0.43750000 0.62500000 0.00000000
0.46721125 0.62294835 0.00000000
0.49546602 0.61933255 0.00000000
0.52252704 0.61473769 0.00000000
0.54828262 0.60920292 0.00000000
0.57262909 0.60276747 0.00000000
0.59547043 0.59547043 0.00000000
0.61671847 0.58735096 0.00000000
0.63629305 0.57844824 0.00000000
0.65412158 0.56880140 0.00000000
0.67013949 0.55844957 0.00000000
0.68428999 0.54743201 0.00000000
0.69652414 0.53578782 0.00000000
0.70680076 0.52355611 0.00000000
0.71508652 0.51077610 0.00000000
0.72135597 0.49748689 0.00000000
0.72559160 0.48372772 0.00000000
0.72778338 0.46953768 0.00000000
0.72792947 0.45495594 0.00000000
0.00000000 0.65625000 0.00000000
0.03125000 0.65625000 0.00000000
0.06250000 0.65625000 0.00000000
0.09375000 0.65625000 0.00000000
0.12500000 0.65625000 0.00000000
0.15625000 0.65625000 0.00000000
0.18750000 0.65625000 0.00000000
0.21875000 0.65625000 0.00000000
0.25000000 0.65625000 0.00000000
0.28125000 0.65625000 0.00000000
0.31250000 0.65625000 0.00000000
0.34375000 0.65625000 0.00000000
0.37500000 0.65625000 0.00000000
0.40499040 0.65421528 0.00000000
0.43363822 0.65045732 0.00000000
0.46119270 0.64566982 0.00000000
0.48753822 0.63989389 0.00000000
0.51256680 0.63317072 0.00000000
0.53617829 0.62554139 0.00000000
0.55828059 0.61704701 0.00000000
0.57878917 0.60772866 0.00000000
0.59762746 0.59762746 0.00000000
0.61472672 0.58678460 0.00000000
0.63002598 0.57524109 0.00000000
0.64347219 0.56303817 0.00000000
0.65502006 0.55021685 0.00000000
0.66463220 0.53681833 0.00000000
0.67227888 0.52288359 0.00000000
0.67793846 0.50845385 0.00000000
0.68159699 0.49357024 0.00000000
0.68324828 0.47827378 0.00000000
0.68289405 0.46260566 0.00000000
