luts/g_major_4_gradient_map.cube
# VEGAS Pro LUT
TITLE "g major 4 (gradient map)"
LUT_3D_SIZE 9
0.00000000 0.00000000 0.00000000
0.12500000 0.00000000 0.00000000
0.25000000 0.00000000 0.00000000
0.37500000 0.00000000 0.00000000
0.50000000 0.00000000 0.00000000
0.62500000 0.00000000 0.00000000
0.75000000 0.00000000 0.00000000
0.87500000 0.00000000 0.00000000
1.00000000 0.00000000 0.00000000
0.00000000 0.12500000 0.00000000
0.12500000 0.12500000 0.00000000
0.25000000 0.12500000 0.00000000
0.37500000 0.12500000 0.00000000
0.50000000 0.12500000 0.00000000
0.62500000 0.12500000 0.00000000
0.75000000 0.12500000 0.00000000
0.87500000 0.12500000 0.00000000
1.00000000 0.12500000 0.00000000
0.00000000 0.25000000 0.00000000
0.12500000 0.25000000 0.00000000
0.25000000 0.25000000 0.00000000
0.37500000 0.25000000 0.00000000
0.50000000 0.25000000 0.00000000
0.62500000 0.25000000 0.00000000
0.75000000 0.25000000 0.00000000
0.87500000 0.25000000 0.00000000
1.00000000 0.25000000 0.00000000
0.00000000 0.37500000 0.00000000
0.12500000 0.37500000 0.00000000
0.25000000 0.37500000 0.00000000
0.37500000 0.37500000 0.00000000
0.50000000 0.37500000 0.00000000
0.62500000 0.37500000 0.00000000
0.75000000 0.37500000 0.00000000
0.87500000 0.37500000 0.00000000
0.98892820 0.37084806 0.00000000
0.00000000 0.50000000 0.00000000
0.12500000 0.50000000 0.00000000
0.25000000 0.50000000 0.00000000
0.37500000 0.50000000 0.00000000
0.50000000 0.50000000 0.00000000
0.62500000 0.50000000 0.00000000
0.74246025 0.49497348 0.00000000
0.83205676 0.47546101 0.00000000
0.89099061 0.44549531 0.00000000
0.00000000 0.62500000 0.00000000
0.12500000 0.62500000 0.00000000
0.25000000 0.62500000 0.00000000
0.37500000 0.62500000 0.00000000
0.49546602 0.61933255 0.00000000
0.59547043 0.59547043 0.00000000
0.67013949 0.55844957 0.00000000
0.71508652 0.51077610 0.00000000
0.72792947 0.45495594 0.00000000
0.00000000 0.75000000 0.00000000
0.12500000 0.75000000 0.00000000
0.24797080 0.74391240 0.00000000
0.35795808 0.71591616 0.00000000
0.44801253 0.67201877 0.00000000
0.51268965 0.61522758 0.00000000
0.54854977 0.54854977 0.00000000
0.55415791 0.47499248 0.00000000
0.53008413 0.39756310 0.00000000
0.00000000 0.86870021 0.00000000
0.11954104 0.83678728 0.00000000
0.22462687 0.78619403 0.00000000
0.30875525 0.72042894 0.00000000
0.36742872 0.64300025 0.00000000
0.39815471 0.55741656 0.00000000
0.40044540 0.46718630 0.00000000
0.37581781 0.37581781 0.00000000
0.32779378 0.28681955 0.00000000
0.00000000 0.90096641 0.00000000
0.10329664 0.82637310 0.00000000
0.18457565 0.73830259 0.00000000
0.24028671 0.64076453 0.00000000
0.26888424 0.53776848 0.00000000
0.27082765 0.43332422 0.00000000
0.24858092 0.33144122 0.00000000
0.20661306 0.23612922 0.00000000
0.15139782 0.15139782 0.00000000
0.00000000 0.00000000 0.12500000
0.12500000 0.00000000 0.12500000
0.25000000 0.00000000 0.12500000
0.37500000 0.00000000 0.12500000
0.50000000 0.00000000 0.12500000
0.62500000 0.00000000 0.12500000
0.75000000 0.00000000 0.12500000
0.87500000 0.00000000 0.12500000
1.00000000 0.00000000 0.12500000
0.00000000 0.12500000 0.12500000
0.12500000 0.12500000 0.12500000
0.25000000 0.12500000 0.12500000
0.37500000 0.12500000 0.12500000
0.50000000 0.12500000 0.12500000
0.62500000 0.12500000 0.12500000
0.75000000 0.12500000 0.12500000
0.87500000 0.12500000 0.12500000
1.00000000 0.12500000 0.12500000
0.00000000 0.25000000 0.12500000
0.12500000 0.25000000 0.12500000
0.25000000 0.25000000 0.12500000
0.37500000 0.25000000 0.12500000
0.50000000 0.25000000 0.12500000
0.62500000 0.25000000 0.12500000
0.75000000 0.25000000 0.12500000
0.87500000 0.25000000 0.12500000
1.00000000 0.25000000 0.12500000
0.00000000 0.37500000 0.12500000
0.12500000 0.37500000 0.12500000
0.25000000 0.37500000 0.12500000
0.37500000 0.37500000 0.12500000
0.50000000 0.37500000 0.12500000
0.62500000 0.37500000 0.12500000
0.75000000 0.37500000 0.12500000
0.87500000 0.37500000 0.12500000
0.97643250 0.36616218 0.12205406
0.00000000 0.50000000 0.12500000
0.12500000 0.50000000 0.12500000
0.25000000 0.50000000 0.12500000
0.37500000 0.50000000 0.12500000
0.50000000 0.50000000 0.12500000
0.62500000 0.50000000 0.12500000
0.73334181 0.48889452 0.12222363
0.81403005 0.46516004 0.11629001
0.86347347 0.43173674 0.10793418
0.00000000 0.62500000 0.12500000
0.12500000 0.62500000 0.12500000
0.25000000 0.62500000 0.12500000
0.37500000 0.62500000 0.12500000
0.48955694 0.61194617 0.12238923
0.58277142 0.58277142 0.11655429
0.64967221 0.54139352 0.10827870
0.68644565 0.49031830 0.09806366
0.69128311 0.43205196 0.08641039
0.00000000 0.75000000 0.12500000
0.12500000 0.75000000 0.12500000
0.24510173 0.73530519 0.12255087
0.35044581 0.70089161 0.11681527
0.43448234 0.65172350 0.10862058
0.49234009 0.59080815 0.09846802
0.52115262 0.52115262 0.08685877
0.52005839 0.44576430 0.07429405
0.49020052 0.36765039 0.06127506
0.00000000 0.85895938 0.12270848
0.11707292 0.81951040 0.11707292
0.21791963 0.76271874 0.10895982
0.29661119 0.69209278 0.09887040
0.34922346 0.61114109 0.08730587
0.37383708 0.52337193 0.07476742
0.37053761 0.43229389 0.06175627
0.34141526 0.34141526 0.04877361
0.29056519 0.25424454 0.03632065
0.00000000 0.87437105 0.10929638
0.09927079 0.79416633 0.09927079
0.17550328 0.70201313 0.08775164
0.22572045 0.60192120 0.07524015
0.24895000 0.49790001 0.06223750
0.24622458 0.39395934 0.04924492
0.22058156 0.29410875 0.03676359
0.17706311 0.20235783 0.02529473
0.12271637 0.12271637 0.01533955
0.00000000 0.00000000 0.25000000
0.12500000 0.00000000 0.25000000
0.25000000 0.00000000 0.25000000
0.37500000 0.00000000 0.25000000
0.50000000 0.00000000 0.25000000
0.62500000 0.00000000 0.25000000
0.75000000 0.00000000 0.25000000
0.87500000 0.00000000 0.25000000
1.00000000 0.00000000 0.25000000
0.00000000 0.12500000 0.25000000
0.12500000 0.12500000 0.25000000
0.25000000 0.12500000 0.25000000
0.37500000 0.12500000 0.25000000
0.50000000 0.12500000 0.25000000
0.62500000 0.12500000 0.25000000
0.75000000 0.12500000 0.25000000
0.87500000 0.12500000 0.25000000
1.00000000 0.12500000 0.25000000
0.00000000 0.25000000 0.25000000
0.12500000 0.25000000 0.25000000
0.25000000 0.25000000 0.25000000
0.37500000 0.25000000 0.25000000
0.50000000 0.25000000 0.25000000
0.62500000 0.25000000 0.25000000
0.75000000 0.25000000 0.25000000
0.87500000 0.25000000 0.25000000
1.00000000 0.25000000 0.25000000
0.00000000 0.37500000 0.25000000
0.12500000 0.37500000 0.25000000
0.25000000 0.37500000 0.25000000
0.37500000 0.37500000 0.25000000
0.50000000 0.37500000 0.25000000
0.62500000 0.37500000 0.25000000
0.75000000 0.37500000 0.25000000
0.87054205 0.37308943 0.24872629
0.96055853 0.36020947 0.24013963
0.00000000 0.50000000 0.25000000
0.12500000 0.50000000 0.25000000
0.25000000 0.50000000 0.25000000
0.37500000 0.50000000 0.25000000
0.50000000 0.50000000 0.25000000
0.62231427 0.49785140 0.24892570
0.72167349 0.48111567 0.24055783
0.79353863 0.45345065 0.22672532
0.83372235 0.41686118 0.20843059
0.00000000 0.62500000 0.25000000
0.12500000 0.62500000 0.25000000
0.25000000 0.62500000 0.25000000
0.37367451 0.62279087 0.24911635
0.48193729 0.60242164 0.24096864
0.56829858 0.56829858 0.22731942
0.62751329 0.52292770 0.20917109
0.65634120 0.46881515 0.18752606
0.65354693 0.40846682 0.16338673
0.00000000 0.75000000 0.25000000
0.12464910 0.74789459 0.24929820
0.24137200 0.72411603 0.24137200
0.34186113 0.68372226 0.22790742
0.41981369 0.62972057 0.20990685
0.47093177 0.56511807 0.18837270
0.49292216 0.49292216 0.16430739
0.48549661 0.41613996 0.13871332
0.45037156 0.33777869 0.11259289
0.00000000 0.84618753 0.24176787
0.11424464 0.79971248 0.22848928
0.21063781 0.73723233 0.21063781
0.28382385 0.66225564 0.18921590
0.33045191 0.57829082 0.16522595
0.34917593 0.48884630 0.13967037
0.34065467 0.39743045 0.11355156
0.30755174 0.30755174 0.08787192
0.25453550 0.22271857 0.06363387
0.00000000 0.84545583 0.21136396
0.09502782 0.76022255 0.19005564
0.16614240 0.66456962 0.16614240
0.21093997 0.56250662 0.14062665
0.22902161 0.45804322 0.11451080
0.22199315 0.35518903 0.08879726
0.19346523 0.25795364 0.06448841
0.14905345 0.17034680 0.04258670
0.09637809 0.09637809 0.02409452
0.00000000 0.00000000 0.37500000
0.12500000 0.00000000 0.37500000
0.25000000 0.00000000 0.37500000
0.37500000 0.00000000 0.37500000
0.50000000 0.00000000 0.37500000
0.62500000 0.00000000 0.37500000
0.75000000 0.00000000 0.37500000
0.87500000 0.00000000 0.37500000
1.00000000 0.00000000 0.37500000
0.00000000 0.12500000 0.37500000
0.12500000 0.12500000 0.37500000
0.25000000 0.12500000 0.37500000
0.37500000 0.12500000 0.37500000
0.50000000 0.12500000 0.37500000
0.62500000 0.12500000 0.37500000
0.75000000 0.12500000 0.37500000
0.87500000 0.12500000 0.37500000
1.00000000 0.12500000 0.37500000
0.00000000 0.25000000 0.37500000
0.12500000 0.25000000 0.37500000
0.25000000 0.25000000 0.37500000
0.37500000 0.25000000 0.37500000
0.50000000 0.25000000 0.37500000
0.62500000 0.25000000 0.37500000
0.75000000 0.25000000 0.37500000
0.87500000 0.25000000 0.37500000
1.00000000 0.25000000 0.37500000
0.00000000 0.37500000 0.37500000
0.12500000 0.37500000 0.37500000
0.25000000 0.37500000 0.37500000
0.37500000 0.37500000 0.37500000
0.50000000 0.37500000 0.37500000
0.62500000 0.37500000 0.37500000
0.75000000 0.37500000 0.37500000
0.86154759 0.36923468 0.36923468
0.94152844 0.35307318 0.35307318
0.00000000 0.50000000 0.37500000
0.12500000 0.50000000 0.37500000
0.25000000 0.50000000 0.37500000
0.37500000 0.50000000 0.37500000
0.50000000 0.50000000 0.37500000
0.61610907 0.49288726 0.36966544
0.70762205 0.47174805 0.35381103
0.77077687 0.44044393 0.33033293
0.80195951 0.40097976 0.30073482
0.00000000 0.62500000 0.37500000
0.12500000 0.62500000 0.37500000
0.25000000 0.62500000 0.37500000
0.37008387 0.61680645 0.37008387
0.47271812 0.59089768 0.35453859
0.55219054 0.55219054 0.33131433
0.60382938 0.50319117 0.30191469
0.62496775 0.44640553 0.26784331
0.61494339 0.38433963 0.23060377
0.00000000 0.75000000 0.37500000
0.12349661 0.74097967 0.37048984
0.23683716 0.71051151 0.35525575
0.33228737 0.66457474 0.33228737
0.40411770 0.60617656 0.30308828
0.44860351 0.53832424 0.26916212
0.46402496 0.46402496 0.23201248
0.45066702 0.38628602 0.19314301
0.41081941 0.30811456 0.15405728
0.00000000 0.83057904 0.35596246
0.11108398 0.77758789 0.33325195
0.20283696 0.70992935 0.30425543
0.27047655 0.63111198 0.27047655
0.31122518 0.54464406 0.23341888
0.32431006 0.45403409 0.19458604
0.31096324 0.36279047 0.15548162
0.27442163 0.27442163 0.11760928
0.21992695 0.19243608 0.08247261
0.00000000 0.81444305 0.30541614
0.09059551 0.72476411 0.27178654
0.15654857 0.62619430 0.23482287
0.19602866 0.52274311 0.19602866
0.20921016 0.41842031 0.15690762
0.19827217 0.31723547 0.11896330
0.16739868 0.22319824 0.08369934
0.12277849 0.14031827 0.05261935
0.07260519 0.07260519 0.02722695
0.00000000 0.00000000 0.50000000
0.12500000 0.00000000 0.50000000
0.25000000 0.00000000 0.50000000
0.37500000 0.00000000 0.50000000
0.50000000 0.00000000 0.50000000
0.62500000 0.00000000 0.50000000
0.75000000 0.00000000 0.50000000
0.87500000 0.00000000 0.50000000
1.00000000 0.00000000 0.50000000
0.00000000 0.12500000 0.50000000
0.12500000 0.12500000 0.50000000
0.25000000 0.12500000 0.50000000
0.37500000 0.12500000 0.50000000
0.50000000 0.12500000 0.50000000
0.62500000 0.12500000 0.50000000
0.75000000 0.12500000 0.50000000
0.87500000 0.12500000 0.50000000
1.00000000 0.12500000 0.50000000
0.00000000 0.25000000 0.50000000
0.12500000 0.25000000 0.50000000
0.25000000 0.25000000 0.50000000
0.37500000 0.25000000 0.50000000
0.50000000 0.25000000 0.50000000
0.62500000 0.25000000 0.50000000
0.75000000 0.25000000 0.50000000
0.87500000 0.25000000 0.50000000
0.99882770 0.24970692 0.49941385
0.00000000 0.37500000 0.50000000
0.12500000 0.37500000 0.50000000
0.25000000 0.37500000 0.50000000
0.37500000 0.37500000 0.50000000
0.50000000 0.37500000 0.50000000
0.62500000 0.37500000 0.50000000
0.74957395 0.37478697 0.49971595
0.84947604 0.36406118 0.48541489
0.91956449 0.34483668 0.45978224
0.00000000 0.50000000 0.50000000
0.12500000 0.50000000 0.50000000
0.25000000 0.50000000 0.50000000
0.37500000 0.50000000 0.50000000
0.50000000 0.50000000 0.50000000
0.60769254 0.48615405 0.48615405
0.69135416 0.46090278 0.46090278
0.74593925 0.42625099 0.42625099
0.76840705 0.38420352 0.38420352
0.00000000 0.62500000 0.50000000
0.12500000 0.62500000 0.50000000
0.25000000 0.62500000 0.50000000
0.36515835 0.60859728 0.48687780
0.46201059 0.57751322 0.46201059
0.53458643 0.53458643 0.42766914
0.57878733 0.48232275 0.38585821
0.59251964 0.42322829 0.33858263
0.57569456 0.35980910 0.28784728
0.00000000 0.75000000 0.50000000
0.12189650 0.73137897 0.48758599
0.23155279 0.69465840 0.46310559
0.32180786 0.64361572 0.42907715
0.38750550 0.58125824 0.38750550
0.42549431 0.51059318 0.34039545
0.43462774 0.43462774 0.28975183
0.41576406 0.35636920 0.23757946
0.37176633 0.27882475 0.18588316
0.00000000 0.81232840 0.46418765
0.10761874 0.75333118 0.43047497
0.19457266 0.68100429 0.38914531
0.25665262 0.59885609 0.34220350
0.29165435 0.51039511 0.29165435
0.29937837 0.41912973 0.23950270
0.28163004 0.32856837 0.18775335
0.24221948 0.24221948 0.13841113
0.18696171 0.16359150 0.09348086
0.00000000 0.78155500 0.39077750
0.08600166 0.68801332 0.34400666
0.14677735 0.58710939 0.29355469
0.18106985 0.48285294 0.24142647
0.18962681 0.37925363 0.18962681
0.17520063 0.28032100 0.14016050
0.14254859 0.19006479 0.09503239
0.09843271 0.11249453 0.05624726
0.05161995 0.05161995 0.02580997
0.00000000 0.00000000 0.62500000
0.12500000 0.00000000 0.62500000
0.25000000 0.00000000 0.62500000
0.37500000 0.00000000 0.62500000
0.50000000 0.00000000 0.62500000
0.62500000 0.00000000 0.62500000
0.75000000 0.00000000 0.62500000
0.87500000 0.00000000 0.62500000
1.00000000 0.00000000 0.62500000
0.00000000 0.12500000 0.62500000
0.12500000 0.12500000 0.62500000
0.25000000 0.12500000 0.62500000
0.37500000 0.12500000 0.62500000
0.50000000 0.12500000 0.62500000
0.62500000 0.12500000 0.62500000
0.75000000 0.12500000 0.62500000
0.87500000 0.12500000 0.62500000
1.00000000 0.12500000 0.62500000
0.00000000 0.25000000 0.62500000
0.12500000 0.25000000 0.62500000
0.25000000 0.25000000 0.62500000
0.37500000 0.25000000 0.62500000
0.50000000 0.25000000 0.62500000
0.62500000 0.25000000 0.62500000
0.75000000 0.25000000 0.62500000
0.87500000 0.25000000 0.62500000
0.99048847 0.24762212 0.61905527
0.00000000 0.37500000 0.62500000
0.12500000 0.37500000 0.62500000
0.25000000 0.37500000 0.62500000
0.37500000 0.37500000 0.62500000
0.50000000 0.37500000 0.62500000
0.62500000 0.37500000 0.62500000
0.74359131 0.37179565 0.61965942
0.83452183 0.35765222 0.59608704
0.89488900 0.33558339 0.55930561
0.00000000 0.50000000 0.62500000
0.12500000 0.50000000 0.62500000
0.25000000 0.50000000 0.62500000
0.37500000 0.50000000 0.62500000
0.49619383 0.49619383 0.62024230
0.59720361 0.47776288 0.59720361
0.67303652 0.44869101 0.56086373
0.71922016 0.41098297 0.51372874
0.73328727 0.36664364 0.45830455
0.00000000 0.62500000 0.62500000
0.12500000 0.62500000 0.62500000
0.24832149 0.62080371 0.62080371
0.35898131 0.59830219 0.59830219
0.44992584 0.56240731 0.56240731
0.51562500 0.51562500 0.51562500
0.55255365 0.46046138 0.46046138
0.55919141 0.39942241 0.39942241
0.53602266 0.33501416 0.33501416
0.00000000 0.74561238 0.62134367
0.11987653 0.71925920 0.59938264
0.22557443 0.67672330 0.56393611
0.31050599 0.62101197 0.51750994
0.37008822 0.55513233 0.46261027
0.40174305 0.48209167 0.40174305
0.40489724 0.40489724 0.33741438
0.38098225 0.32655621 0.27213019
0.33343452 0.25007588 0.20839658
0.00000000 0.79163003 0.56545001
0.10387668 0.72713673 0.51938343
0.18590042 0.65065145 0.46475106
0.24243540 0.56568259 0.40405899
0.27185059 0.47573853 0.33981323
0.27451980 0.38432774 0.27451980
0.25282171 0.29495865 0.21068476
0.21113968 0.21113968 0.15081406
0.15586203 0.13637927 0.09741377
0.00000000 0.74701381 0.46688363
0.08127402 0.65019214 0.40637010
0.13688427 0.54753709 0.34221068
0.16614684 0.44305825 0.27691141
0.17038265 0.34076530 0.21297830
0.15291736 0.24466777 0.15291736
0.11908154 0.15877539 0.09923462
0.07621054 0.08709776 0.05443610
0.03364456 0.03364456 0.02102785
0.00000000 0.00000000 0.75000000
0.12500000 0.00000000 0.75000000
0.25000000 0.00000000 0.75000000
0.37500000 0.00000000 0.75000000
0.50000000 0.00000000 0.75000000
0.62500000 0.00000000 0.75000000
0.75000000 0.00000000 0.75000000
0.87500000 0.00000000 0.75000000
1.00000000 0.00000000 0.75000000
0.00000000 0.12500000 0.75000000
0.12500000 0.12500000 0.75000000
0.25000000 0.12500000 0.75000000
0.37500000 0.12500000 0.75000000
0.50000000 0.12500000 0.75000000
0.62500000 0.12500000 0.75000000
0.75000000 0.12500000 0.75000000
0.87500000 0.12500000 0.75000000
1.00000000 0.12500000 0.75000000
0.00000000 0.25000000 0.75000000
0.12500000 0.25000000 0.75000000
0.25000000 0.25000000 0.75000000
0.37500000 0.25000000 0.75000000
0.50000000 0.25000000 0.75000000
0.62500000 0.25000000 0.75000000
0.75000000 0.25000000 0.75000000
0.87500000 0.25000000 0.75000000
0.97851562 0.24462891 0.73388672
0.00000000 0.37500000 0.75000000
0.12500000 0.37500000 0.75000000
0.25000000 0.37500000 0.75000000
0.37500000 0.37500000 0.75000000
0.50000000 0.37500000 0.75000000
0.62500000 0.37500000 0.75000000
0.73486739 0.36743370 0.73486739
0.81687933 0.35009116 0.70018232
0.86772406 0.32539654 0.65079308
0.00000000 0.50000000 0.75000000
0.12500000 0.50000000 0.75000000
0.25000000 0.50000000 0.75000000
0.37500000 0.50000000 0.75000000
0.49054936 0.49054936 0.73582405
0.58478111 0.46782488 0.70173728
0.65283573 0.43522382 0.65283573
0.69081420 0.39475098 0.59212649
0.69682240 0.34841120 0.52261680
0.00000000 0.62500000 0.75000000
0.12500000 0.62500000 0.75000000
0.24558553 0.61396384 0.73675656
0.35163611 0.58606017 0.70327222
0.43657491 0.54571861 0.65486234
0.49544519 0.49544519 0.59453428
0.52529508 0.43774590 0.52529508
0.52517748 0.37512675 0.45015210
0.49615002 0.31009376 0.37211251
0.00000000 0.73766488 0.73766488
0.11746449 0.70478696 0.70478696
0.21895763 0.65687287 0.65687287
0.29846501 0.59693003 0.59693003
0.35197693 0.52796543 0.52796543
0.37748858 0.45298630 0.45298630
0.37500000 0.37500000 0.37500000
0.34651598 0.29701370 0.29701370
0.29604620 0.22203465 0.22203465
0.00000000 0.76867843 0.65886724
0.09988558 0.69919908 0.59931350
0.17687583 0.61906540 0.53062749
0.22790819 0.53178579 0.45581639
0.25192499 0.44086874 0.37788749
0.24987325 0.34982255 0.29984790
0.22470492 0.26215574 0.22470492
0.18137671 0.18137671 0.15546575
0.12685019 0.11099391 0.09513764
0.00000000 0.71104181 0.53328133
0.07644039 0.61152309 0.45864230
0.12692493 0.50769973 0.38077480
0.15134299 0.40358132 0.30268598
0.15158880 0.30317760 0.22738320
0.13156128 0.21049803 0.15787353
0.09716432 0.12955242 0.09716432
0.05630647 0.06435025 0.04826269
0.01890129 0.01890129 0.01417597
0.00000000 0.00000000 0.87500000
0.12500000 0.00000000 0.87500000
0.25000000 0.00000000 0.87500000
0.37500000 0.00000000 0.87500000
0.50000000 0.00000000 0.87500000
0.62500000 0.00000000 0.87500000
0.75000000 0.00000000 0.87500000
0.87500000 0.00000000 0.87500000
1.00000000 0.00000000 0.87500000
0.00000000 0.12500000 0.87500000
0.12500000 0.12500000 0.87500000
0.25000000 0.12500000 0.87500000
0.37500000 0.12500000 0.87500000
0.50000000 0.12500000 0.87500000
0.62500000 0.12500000 0.87500000
0.75000000 0.12500000 0.87500000
0.87500000 0.12500000 0.87500000
1.00000000 0.12500000 0.87500000
0.00000000 0.25000000 0.87500000
0.12500000 0.25000000 0.87500000
0.25000000 0.25000000 0.87500000
0.37500000 0.25000000 0.87500000
0.50000000 0.25000000 0.87500000
0.62500000 0.25000000 0.87500000
0.75000000 0.25000000 0.87500000
0.87160772 0.24903078 0.87160772
0.96313131 0.24078283 0.84273988
0.00000000 0.37500000 0.87500000
0.12500000 0.37500000 0.87500000
0.25000000 0.37500000 0.87500000
0.37500000 0.37500000 0.87500000
0.50000000 0.37500000 0.87500000
0.62304157 0.37382495 0.87225819
0.72356874 0.36178437 0.84416354
0.79674315 0.34146136 0.79674315
0.83829200 0.31435949 0.73350549
0.00000000 0.50000000 0.87500000
0.12500000 0.50000000 0.87500000
0.25000000 0.50000000 0.87500000
0.37409049 0.49878731 0.87287778
0.48317772 0.48317772 0.84556103
0.57056391 0.45645112 0.79878944
0.63091844 0.42061231 0.73607153
0.66091573 0.37766612 0.66091573
0.65923476 0.32961738 0.57683039
0.00000000 0.62500000 0.87500000
0.12478090 0.62390453 0.87346631
0.24198061 0.60495150 0.84693217
0.34320608 0.57201016 0.80081415
0.42206898 0.52758622 0.73862070
0.47418594 0.47418594 0.66386032
0.49717829 0.41431522 0.58004135
0.49067226 0.35048020 0.49067226
0.45629883 0.28518677 0.39926147
0.00000000 0.72709441 0.84827679
0.11468816 0.68812895 0.80281711
0.21175799 0.63527393 0.74115294
0.28576830 0.57153660 0.66679269
0.33328277 0.49992415 0.58324486
0.35286981 0.42344379 0.49401775
0.34510276 0.34510276 0.40261990
0.31255972 0.26790833 0.31255972
0.25982362 0.19486772 0.22734568
0.00000000 0.74366796 0.74366796
0.09567323 0.66971266 0.66971266
0.16755445 0.58644056 0.58644056
0.21315441 0.49736029 0.49736029
0.23198867 0.40598017 0.40598017
0.22557758 0.31580859 0.31580859
0.19744635 0.23035407 0.23035407
0.15312502 0.15312502 0.15312502
0.10014832 0.08762978 0.08762978
0.00000000 0.67386115 0.58962852
0.07152853 0.57222825 0.50069970
0.11695486 0.46781945 0.40934202
0.13674165 0.36464441 0.31906384
0.13335636 0.26671273 0.23337364
0.11127129 0.17803407 0.15577981
0.07696348 0.10261798 0.08979073
0.03891496 0.04447424 0.03891496
0.00761235 0.00761235 0.00666080
0.00000000 0.00000000 1.00000000
0.12500000 0.00000000 1.00000000
0.25000000 0.00000000 1.00000000
0.37500000 0.00000000 1.00000000
0.50000000 0.00000000 1.00000000
0.62500000 0.00000000 1.00000000
0.75000000 0.00000000 1.00000000
0.87500000 0.00000000 1.00000000
1.00000000 0.00000000 1.00000000
0.00000000 0.12500000 1.00000000
0.12500000 0.12500000 1.00000000
0.25000000 0.12500000 1.00000000
0.37500000 0.12500000 1.00000000
0.50000000 0.12500000 1.00000000
0.62500000 0.12500000 1.00000000
0.75000000 0.12500000 1.00000000
0.87500000 0.12500000 1.00000000
1.00000000 0.12500000 1.00000000
0.00000000 0.25000000 1.00000000
0.12500000 0.25000000 1.00000000
0.25000000 0.25000000 1.00000000
0.37500000 0.25000000 1.00000000
0.50000000 0.25000000 1.00000000
0.62500000 0.25000000 1.00000000
0.75000000 0.25000000 1.00000000
0.86308885 0.24659681 0.98638725
0.94455779 0.23613945 0.94455779
0.00000000 0.37500000 1.00000000
0.12500000 0.37500000 1.00000000
0.25000000 0.37500000 1.00000000
0.37500000 0.37500000 1.00000000
0.50000000 0.37500000 1.00000000
0.61717808 0.37030685 0.98748493
0.70986211 0.35493106 0.94648284
0.77430761 0.33184612 0.88492298
0.80681497 0.30255562 0.80681497
0.00000000 0.50000000 1.00000000
0.12500000 0.50000000 1.00000000
0.25000000 0.50000000 1.00000000
0.37070602 0.49427471 0.98854941
0.47419003 0.47419003 0.94838005
0.55469090 0.44375274 0.88750547
0.60745144 0.40496761 0.80993521
0.62971914 0.35983950 0.71967900
0.62074637 0.31037319 0.62074637
0.00000000 0.62500000 1.00000000
0.12369755 0.61848772 0.98958039
0.23756231 0.59390581 0.95024925
0.33377451 0.55629086 0.89006537
0.40651917 0.50814897 0.81303835
0.45198607 0.45198607 0.72317773
0.46836996 0.39030832 0.62449330
0.45587027 0.32562163 0.52099460
0.41669130 0.26043206 0.41669130
0.00000000 0.71406770 0.95209026
0.11157531 0.66945183 0.89260244
0.20403101 0.61209303 0.81612402
0.27249920 0.54499841 0.72666454
0.31411684 0.47117525 0.62823367
0.32802567 0.39363080 0.52484107
0.31537223 0.31537223 0.42049628
0.27930796 0.23940682 0.31920910
0.22498900 0.16874175 0.22498900
0.00000000 0.71679318 0.81919217
0.09126740 0.63887179 0.73013920
0.15799183 0.55297136 0.63196731
0.19825733 0.46260044 0.52868623
0.21215272 0.37126726 0.42430544
0.20177171 0.28248039 0.32283473
0.17121269 0.19974813 0.22828358
0.12657902 0.12657902 0.14466172
0.07597882 0.06648146 0.07597882
0.00000000 0.63569409 0.63569409
0.06656624 0.53252989 0.53252989
0.10702963 0.42811853 0.42811853
0.12242614 0.32646972 0.32646972
0.11579648 0.23159295 0.23159295
0.09218626 0.14749801 0.14749801
0.05864583 0.07819444 0.07819444
0.02423041 0.02769190 0.02769190
0.00000000 0.00000000 0.00000000
